**kern	**kern
*part1	*part1
*staff2	*staff1
*I"Piano	*
*clefF4	*clefG2
*k[]	*k[]
=1	=1
4.AA	16cLL
.	16e
.	16a
.	16e
.	16c
.	16eJJ
=	=
4.D^ 4.A	16dLL
.	16f
.	16a
.	16f
.	16d
.	16fJJ
=	=
4.AA 4.A	16eLL
.	16a
.	16cc
.	16a
.	16e
.	16aJJ
=	=
4.GG	16eLL
.	16g
.	16b
.	16g
.	16f 16b
.	16gJJ
=	=
4.C	16eLL
.	16g
.	16cc
.	16g
.	16d#X^
.	16f#XJJ
=	=
4.c	16eLL
.	16g
.	16cc
.	16g
.	16d#X
.	16f#XJJ
=	=
4.C	16gLL
.	16cc
.	16ee
.	16cc
.	16f#X
.	16ccJJ
=	=
4.c	16gLL
.	16cc
.	16ee
.	16cc
.	16f#X
.	16ccJJ
=	=
*-	*-
!!!system-decoration: {(s1,s2)}
